Sweet-Rainbow/icons/stremio.svg

<?xml version="1.0" encoding="UTF-8" standalone="no"?>
<!-- Generator: Gravit.io -->

<svg
   xmlns:dc="http://purl.org/dc/elements/1.1/"
   xmlns:cc="http://creativecommons.org/ns#"
   xmlns:rdf="http://www.w3.org/1999/02/22-rdf-syntax-ns#"
   xmlns:svg="http://www.w3.org/2000/svg"
   xmlns="http://www.w3.org/2000/svg"
   xmlns:sodipodi="http://sodipodi.sourceforge.net/DTD/sodipodi-0.dtd"
   xmlns:inkscape="http://www.inkscape.org/namespaces/inkscape"
   style="isolation:isolate"
   viewBox="0 0 36 36"
   width="48"
   height="48"
   version="1.1"
   id="svg9"
   sodipodi:docname="stremio.svg"
   inkscape:version="0.92.4 (5da689c313, 2019-01-14)">
  <metadata
     id="metadata15">
    <rdf:RDF>
      <cc:Work
         rdf:about="">
        <dc:format>image/svg+xml</dc:format>
        <dc:type
           rdf:resource="http://purl.org/dc/dcmitype/StillImage" />
        <dc:title></dc:title>
      </cc:Work>
    </rdf:RDF>
  </metadata>
  <defs
     id="defs13" />
  <sodipodi:namedview
     pagecolor="#ffffff"
     bordercolor="#666666"
     borderopacity="1"
     objecttolerance="10"
     gridtolerance="10"
     guidetolerance="10"
     inkscape:pageopacity="0"
     inkscape:pageshadow="2"
     inkscape:window-width="640"
     inkscape:window-height="480"
     id="namedview11"
     showgrid="false"
     inkscape:zoom="29.365243"
     inkscape:cx="25.325443"
     inkscape:cy="32"
     inkscape:current-layer="svg9"
     units="px" />
  <linearGradient
     id="_lgradient_12"
     x1="0.49431795"
     y1="0.84889948"
     x2="0.49431795"
     y2="0.18570215"
     gradientTransform="matrix(43.998,0,0,43.351,2.001,2.325)"
     gradientUnits="userSpaceOnUse">
    <stop
       offset="0%"
       stop-opacity="1"
       style="stop-color:rgb(26,108,255)"
       id="stop2" />
    <stop
       offset="100%"
       stop-opacity="1"
       style="stop-color:rgb(197,34,255)"
       id="stop4" />
  </linearGradient>
  <g
     id="g826"
     transform="matrix(0.81821678,0,0,0.81821678,-1.6372027,-1.6372027)">
    <path
       id="path7"
       d="m 5.26,21.55 v 0 C 4.399,22.245 3.138,22.113 2.445,21.255 v 0 C 1.752,20.397 1.885,19.14 2.74,18.45 v 0 L 20.186,3.663 c 2.105,-1.784 5.523,-1.784 7.628,0 L 45.26,18.45 v 0 c 0.855,0.69 0.988,1.947 0.295,2.805 v 0 c -0.693,0.858 -1.954,0.99 -2.815,0.295 v 0 L 26.283,7.517 c -1.26,-1.075 -3.306,-1.075 -4.566,0 z m 37.48,4.9 v 0 c 0.861,-0.695 2.122,-0.563 2.815,0.295 v 0 c 0.693,0.858 0.56,2.115 -0.295,2.805 v 0 L 27.814,44.337 c -2.105,1.784 -5.523,1.784 -7.628,0 L 2.74,29.55 v 0 C 1.885,28.86 1.752,27.603 2.445,26.745 v 0 C 3.138,25.887 4.399,25.755 5.26,26.45 v 0 l 16.457,14.033 c 1.26,1.075 3.306,1.075 4.566,0 z M 20.119,21 v 0 c 0,0.828 -0.672,1.5 -1.5,1.5 v 0 c -0.828,0 -1.5,-0.672 -1.5,-1.5 v 0 -2.8 c 0,-2.76 1.864,-3.757 4.16,-2.226 l 7.88,5.252 c 2.296,1.531 2.296,4.017 0,5.548 l -7.88,5.252 c -2.296,1.531 -4.16,0.534 -4.16,-2.226 V 27 27 c 0,-0.828 0.672,-1.5 1.5,-1.5 v 0 c 0.828,0 1.5,0.672 1.5,1.5 v 0 2.2 l 6.136,-4.091 c 0.918,-0.612 0.918,-1.606 0,-2.218 L 20.119,18.8 Z"
       inkscape:connector-curvature="0"
       style="fill:url(#_lgradient_12);fill-rule:evenodd" />
  </g>
</svg>

<?xml version="1.0" encoding="UTF-8" standalone="no"?><!-- Generator: Gravit.io --><svg xmlns="http://www.w3.org/2000/svg" xmlns:xlink="http://www.w3.org/1999/xlink" style="isolation:isolate" viewBox="0 0 48 48" width="48pt" height="48pt"><linearGradient id="_lgradient_12" x1="0.494317939921004" y1="0.8488994592628899" x2="0.49431793992100387" y2="0.18570214000285068" gradientTransform="matrix(43.998,0,0,43.351,2.001,2.325)" gradientUnits="userSpaceOnUse"><stop offset="0%" stop-opacity="1" style="stop-color:rgb(26,108,255)"/><stop offset="100%" stop-opacity="1" style="stop-color:rgb(197,34,255)"/></linearGradient><path d=" M 5.26 21.55 L 5.26 21.55 C 4.399 22.245 3.138 22.113 2.445 21.255 L 2.445 21.255 C 1.752 20.397 1.885 19.14 2.74 18.45 L 2.74 18.45 L 20.186 3.663 C 22.291 1.879 25.709 1.879 27.814 3.663 L 45.26 18.45 L 45.26 18.45 C 46.115 19.14 46.248 20.397 45.555 21.255 L 45.555 21.255 C 44.862 22.113 43.601 22.245 42.74 21.55 L 42.74 21.55 L 26.283 7.517 C 25.023 6.442 22.977 6.442 21.717 7.517 L 5.26 21.55 L 5.26 21.55 Z  M 42.74 26.45 L 42.74 26.45 C 43.601 25.755 44.862 25.887 45.555 26.745 L 45.555 26.745 C 46.248 27.603 46.115 28.86 45.26 29.55 L 45.26 29.55 L 27.814 44.337 C 25.709 46.121 22.291 46.121 20.186 44.337 L 2.74 29.55 L 2.74 29.55 C 1.885 28.86 1.752 27.603 2.445 26.745 L 2.445 26.745 C 3.138 25.887 4.399 25.755 5.26 26.45 L 5.26 26.45 L 21.717 40.483 C 22.977 41.558 25.023 41.558 26.283 40.483 L 42.74 26.45 L 42.74 26.45 Z  M 20.119 21 L 20.119 21 C 20.119 21.828 19.447 22.5 18.619 22.5 L 18.619 22.5 C 17.791 22.5 17.119 21.828 17.119 21 L 17.119 21 L 17.119 18.2 C 17.119 15.44 18.983 14.443 21.279 15.974 L 29.159 21.226 C 31.455 22.757 31.455 25.243 29.159 26.774 L 21.279 32.026 C 18.983 33.557 17.119 32.56 17.119 29.8 L 17.119 27 L 17.119 27 C 17.119 26.172 17.791 25.5 18.619 25.5 L 18.619 25.5 C 19.447 25.5 20.119 26.172 20.119 27 L 20.119 27 L 20.119 29.2 L 26.255 25.109 C 27.173 24.497 27.173 23.503 26.255 22.891 L 20.119 18.8 L 20.119 21 Z " fill-rule="evenodd" fill="url(#_lgradient_12)"/></svg>
